packages/blockchain-info-components/src/Images/img/banks/bank-logo-pnc.svg

<svg fill="none" height="32" viewBox="0 0 32 32" width="32" xmlns="http://www.w3.org/2000/svg" xmlns:xlink="http://www.w3.org/1999/xlink"><clipPath id="a"><path d="m0 0h32v32h-32z"/></clipPath><g clip-path="url(#a)"><path clip-rule="evenodd" d="m23.9061 18.2102c-1.4984 0-3.5969 0-3.5969 0 .1497-.3743.0755-.8983-.2245-1.4984l-2.0237-3.3717-3.3723-5.92112s-1.2738-2.39797-3.1471-3.8215c1.199.44976 16.3369 9.29222 16.3369 9.29222 2.4734 1.499 4.6461 5.2456-3.9724 5.3205zm-11.3907 9.518c-2.4734 1.4235-6.89491 1.4235-2.62311-6.0697.74921-1.275 1.79841-3.1477 1.79841-3.1477.3001.3743.7499.5989 1.4242.5989h3.9717 6.8195s2.6986.0748 4.872-.8234c-.9744.7486-16.2627 9.4419-16.2627 9.4419zm-5.17069-20.68414c0-2.8471 2.24818-6.66977 6.59479.74977.7492 1.34931 1.7985 3.14777 1.7985 3.14777-.4498.0742-.8246.3749-1.199.9744l-1.9487 3.4471-3.44716 5.8451s-1.42414 2.323-1.72359 4.7222c-.15036-1.3499-.07484-18.88634-.07484-18.88634zm8.61789-7.04406c-8.84308 0-15.9626 7.11952-15.9626 15.9626 0 8.8425 7.11952 16.0374 15.9626 16.0374 8.8437 0 16.038-7.1949 16.038-16.0374 0-8.84308-7.1943-15.9626-16.038-15.9626z" fill="#e6863e" fill-rule="evenodd"/></g></svg>

<svg width="32" height="32" viewBox="0 0 32 32" fill="none" xmlns="http://www.w3.org/2000/svg">
<g clip-path="url(#clip0)">
<path fill-rule="evenodd" clip-rule="evenodd" d="M23.9061 18.2102C22.4077 18.2102 20.3092 18.2102 20.3092 18.2102C20.4589 17.8359 20.3847 17.3119 20.0847 16.7118L18.061 13.3401L14.6887 7.41898C14.6887 7.41898 13.4149 5.02101 11.5416 3.59748C12.7406 4.04724 27.8785 12.8897 27.8785 12.8897C30.3519 14.3887 32.5246 18.1353 23.9061 18.2102ZM12.5154 27.7282C10.042 29.1517 5.62049 29.1517 9.89229 21.6585C10.6415 20.3835 11.6907 18.5108 11.6907 18.5108C11.9908 18.8851 12.4406 19.1097 13.1149 19.1097H17.0866H23.9061C23.9061 19.1097 26.6047 19.1845 28.7781 18.2863C27.8037 19.0349 12.5154 27.7282 12.5154 27.7282ZM7.34471 7.04406C7.34471 4.19696 9.59289 0.37429 13.9395 7.79383C14.6887 9.14314 15.738 10.9416 15.738 10.9416C15.2882 11.0158 14.9134 11.3165 14.539 11.916L12.5903 15.3631L9.14314 21.2082C9.14314 21.2082 7.719 23.5312 7.41955 25.9304C7.26919 24.5805 7.34471 7.04406 7.34471 7.04406ZM15.9626 0C7.11952 0 0 7.11952 0 15.9626C0 24.8051 7.11952 32 15.9626 32C24.8063 32 32.0006 24.8051 32.0006 15.9626C32.0006 7.11952 24.8063 0 15.9626 0Z" fill="#E6863E"/>
</g>
<defs>
<clipPath id="clip0">
<rect width="32" height="32" fill="white"/>
</clipPath>
</defs>
</svg>
